static/ox-hugo/krbfz1.svg

<?xml version="1.0" encoding="UTF-8" standalone="no"?>
<svg
   width="209.763pt"
   height="174.871pt"
   viewBox="0 0 209.763 174.871"
   version="1.2"
   id="svg90"
   xmlns:xlink="http://www.w3.org/1999/xlink"
   xmlns="http://www.w3.org/2000/svg"
   xmlns:svg="http://www.w3.org/2000/svg">
  <defs
     id="defs19">
    <g
       id="g17">
      <symbol
         overflow="visible"
         id="glyph0-0">
        <path
           style="stroke:none;"
           d=""
           id="path2" />
      </symbol>
      <symbol
         overflow="visible"
         id="glyph0-1">
        <path
           style="stroke:none;"
           d="M 6.5625 -2.296875 C 6.734375 -2.296875 6.921875 -2.296875 6.921875 -2.5 C 6.921875 -2.6875 6.734375 -2.6875 6.5625 -2.6875 L 1.171875 -2.6875 C 1 -2.6875 0.828125 -2.6875 0.828125 -2.5 C 0.828125 -2.296875 1 -2.296875 1.171875 -2.296875 Z M 6.5625 -2.296875 "
           id="path5" />
      </symbol>
      <symbol
         overflow="visible"
         id="glyph1-0">
        <path
           style="stroke:none;"
           d=""
           id="path8" />
      </symbol>
      <symbol
         overflow="visible"
         id="glyph1-1">
        <path
           style="stroke:none;"
           d="M 1.265625 -0.765625 L 2.328125 -1.796875 C 3.875 -3.171875 4.46875 -3.703125 4.46875 -4.703125 C 4.46875 -5.84375 3.578125 -6.640625 2.359375 -6.640625 C 1.234375 -6.640625 0.5 -5.71875 0.5 -4.828125 C 0.5 -4.28125 1 -4.28125 1.03125 -4.28125 C 1.203125 -4.28125 1.546875 -4.390625 1.546875 -4.8125 C 1.546875 -5.0625 1.359375 -5.328125 1.015625 -5.328125 C 0.9375 -5.328125 0.921875 -5.328125 0.890625 -5.3125 C 1.109375 -5.96875 1.65625 -6.328125 2.234375 -6.328125 C 3.140625 -6.328125 3.5625 -5.515625 3.5625 -4.703125 C 3.5625 -3.90625 3.078125 -3.125 2.515625 -2.5 L 0.609375 -0.375 C 0.5 -0.265625 0.5 -0.234375 0.5 0 L 4.203125 0 L 4.46875 -1.734375 L 4.234375 -1.734375 C 4.171875 -1.4375 4.109375 -1 4 -0.84375 C 3.9375 -0.765625 3.28125 -0.765625 3.0625 -0.765625 Z M 1.265625 -0.765625 "
           id="path11" />
      </symbol>
      <symbol
         overflow="visible"
         id="glyph1-2">
        <path
           style="stroke:none;"
           d="M 2.9375 -6.375 C 2.9375 -6.625 2.9375 -6.640625 2.703125 -6.640625 C 2.078125 -6 1.203125 -6 0.890625 -6 L 0.890625 -5.6875 C 1.09375 -5.6875 1.671875 -5.6875 2.1875 -5.953125 L 2.1875 -0.78125 C 2.1875 -0.421875 2.15625 -0.3125 1.265625 -0.3125 L 0.953125 -0.3125 L 0.953125 0 C 1.296875 -0.03125 2.15625 -0.03125 2.5625 -0.03125 C 2.953125 -0.03125 3.828125 -0.03125 4.171875 0 L 4.171875 -0.3125 L 3.859375 -0.3125 C 2.953125 -0.3125 2.9375 -0.421875 2.9375 -0.78125 Z M 2.9375 -6.375 "
           id="path14" />
      </symbol>
    </g>
  </defs>
  <g
     id="surface1">
    <path
       style="fill:none;stroke:#7f7f7f;stroke-width:0.19925;stroke-linecap:butt;stroke-linejoin:miter;stroke-miterlimit:10;stroke-opacity:1"
       d="m 0.0015,78.573438 v 4.25 m 48.566406,-4.25 v 4.25 m 97.132814,-4.25 v 4.25 m 48.57031,-4.25 v 4.25"
       transform="matrix(1,0,0,-1,9.686,167.925)"
       id="path21" />
    <path
       style="fill:none;stroke:#7f7f7f;stroke-width:0.19925;stroke-linecap:butt;stroke-linejoin:miter;stroke-miterlimit:10;stroke-opacity:1"
       d="m 95.009312,-7.8125e-4 h 4.25 m -4.25,40.35156225 h 4.25 m -4.25,80.695309 h 4.25 m -4.25,40.35157 h 4.25"
       transform="matrix(1,0,0,-1,9.686,167.925)"
       id="path23" />
    <path
       style="fill:none;stroke:#000000;stroke-width:0.79701;stroke-linecap:butt;stroke-linejoin:miter;stroke-miterlimit:10;stroke-opacity:1"
       d="M 0.0015,80.698438 H 191.67728"
       transform="matrix(1,0,0,-1,9.686,167.925)"
       id="path25" />
    <path
       style="fill:#000000;fill-opacity:1;fill-rule:nonzero;stroke:none"
       d="m 203.95703,87.226562 -4.14453,-2.070312 1.55078,2.070312 -1.55078,2.074219"
       id="path27" />
    <path
       style="fill:none;stroke:#000000;stroke-width:0.79701;stroke-linecap:butt;stroke-linejoin:miter;stroke-miterlimit:10;stroke-opacity:1"
       d="M 97.134312,-7.8125e-4 V 158.80781"
       transform="matrix(1,0,0,-1,9.686,167.925)"
       id="path29" />
    <path
       style="fill:#000000;fill-opacity:1;fill-rule:nonzero;stroke:none"
       d="m 106.82031,6.527344 -2.07031,4.144531 2.07031,-1.554687 2.07422,1.554687"
       id="path31" />
    <g
       style="fill:#000000;fill-opacity:1"
       id="g35">
      <use
         xlink:href="#glyph0-1"
         x="3.3210001"
         y="99.492996"
         id="use33" />
    </g>
    <g
       style="fill:#000000;fill-opacity:1"
       id="g39">
      <use
         xlink:href="#glyph1-1"
         x="11.069"
         y="99.492996"
         id="use37" />
    </g>
    <g
       style="fill:#000000;fill-opacity:1"
       id="g43">
      <use
         xlink:href="#glyph0-1"
         x="51.887001"
         y="99.492996"
         id="use41" />
    </g>
    <g
       style="fill:#000000;fill-opacity:1"
       id="g47">
      <use
         xlink:href="#glyph1-2"
         x="59.636002"
         y="99.492996"
         id="use45" />
    </g>
    <g
       style="fill:#000000;fill-opacity:1"
       id="g51">
      <use
         xlink:href="#glyph1-2"
         x="152.895"
         y="99.492996"
         id="use49" />
    </g>
    <g
       style="fill:#000000;fill-opacity:1"
       id="g55">
      <use
         xlink:href="#glyph1-1"
         x="201.46201"
         y="99.492996"
         id="use53" />
    </g>
    <g
       style="fill:#000000;fill-opacity:1"
       id="g59">
      <use
         xlink:href="#glyph0-1"
         x="88.244003"
         y="170.72"
         id="use57" />
    </g>
    <g
       style="fill:#000000;fill-opacity:1"
       id="g63">
      <use
         xlink:href="#glyph1-1"
         x="95.992996"
         y="170.72"
         id="use61" />
    </g>
    <g
       style="fill:#000000;fill-opacity:1"
       id="g67">
      <use
         xlink:href="#glyph0-1"
         x="88.244003"
         y="130.37199"
         id="use65" />
    </g>
    <g
       style="fill:#000000;fill-opacity:1"
       id="g71">
      <use
         xlink:href="#glyph1-2"
         x="95.992996"
         y="130.37199"
         id="use69" />
    </g>
    <g
       style="fill:#000000;fill-opacity:1"
       id="g75">
      <use
         xlink:href="#glyph1-2"
         x="95.992996"
         y="50.09"
         id="use73" />
    </g>
    <g
       style="fill:#000000;fill-opacity:1"
       id="g79">
      <use
         xlink:href="#glyph1-1"
         x="95.992996"
         y="9.7410002"
         id="use77" />
    </g>
    <path
       style="fill:#e3e3ff;fill-opacity:1;fill-rule:nonzero;stroke:#ff0000;stroke-width:0.79701;stroke-linecap:butt;stroke-linejoin:miter;stroke-miterlimit:10;stroke-opacity:1"
       d="m 97.134312,40.350781 c 26.824218,0 48.566408,18.0625 48.566408,40.347657 0,22.285152 -21.74219,40.347652 -48.566408,40.347652"
       transform="matrix(1,0,0,-1,9.686,167.925)"
       id="path81" />
    <path
       style="fill:#f0f0f0;fill-opacity:1;fill-rule:nonzero;stroke:#ff0000;stroke-width:0.79701;stroke-linecap:butt;stroke-linejoin:miter;stroke-miterlimit:10;stroke-opacity:1"
       d="m 107.09916,80.698438 c 0,22.007812 -4.46094,39.851562 -9.964848,39.851562 -5.503906,0 -9.960937,-17.84375 -9.960937,-39.851562 0,-22.007813 4.457031,-39.851563 9.960937,-39.851563 5.503908,0 9.964848,17.84375 9.964848,39.851563 z m 0,0"
       transform="matrix(1,0,0,-1,9.686,167.925)"
       id="path83" />
    <path
       style="fill:none;stroke:#000000;stroke-width:0.79701;stroke-linecap:butt;stroke-linejoin:miter;stroke-miterlimit:10;stroke-opacity:1"
       d="M 48.567906,80.698438 H 106.84916"
       transform="matrix(1,0,0,-1,9.686,167.925)"
       id="path85" />
    <path
       style="fill:none;stroke:#000000;stroke-width:0.79701;stroke-linecap:butt;stroke-linejoin:miter;stroke-miterlimit:10;stroke-opacity:1"
       d="M 97.134312,40.350781 V 121.04609"
       transform="matrix(1,0,0,-1,9.686,167.925)"
       id="path87" />
  </g>
</svg>

<?xml version="1.0" encoding="UTF-8" standalone="no"?>
<svg
   width="209.763pt"
   height="174.871pt"
   viewBox="0 0 209.763 174.871"
   version="1.1"
   id="svg85"
   xmlns:xlink="http://www.w3.org/1999/xlink"
   xmlns="http://www.w3.org/2000/svg"
   xmlns:svg="http://www.w3.org/2000/svg">
  <defs
     id="defs15">
    <g
       id="g13">
      <g
         id="glyph-0-0" />
      <g
         id="glyph-0-1">
        <path
           d="M 6.5625 -2.296875 C 6.734375 -2.296875 6.921875 -2.296875 6.921875 -2.5 C 6.921875 -2.6875 6.734375 -2.6875 6.5625 -2.6875 L 1.171875 -2.6875 C 1 -2.6875 0.828125 -2.6875 0.828125 -2.5 C 0.828125 -2.296875 1 -2.296875 1.171875 -2.296875 Z M 6.5625 -2.296875 "
           id="path3" />
      </g>
      <g
         id="glyph-1-0" />
      <g
         id="glyph-1-1">
        <path
           d="M 1.265625 -0.765625 L 2.328125 -1.796875 C 3.875 -3.171875 4.46875 -3.703125 4.46875 -4.703125 C 4.46875 -5.84375 3.578125 -6.640625 2.359375 -6.640625 C 1.234375 -6.640625 0.5 -5.71875 0.5 -4.828125 C 0.5 -4.28125 1 -4.28125 1.03125 -4.28125 C 1.203125 -4.28125 1.546875 -4.390625 1.546875 -4.8125 C 1.546875 -5.0625 1.359375 -5.328125 1.015625 -5.328125 C 0.9375 -5.328125 0.921875 -5.328125 0.890625 -5.3125 C 1.109375 -5.96875 1.65625 -6.328125 2.234375 -6.328125 C 3.140625 -6.328125 3.5625 -5.515625 3.5625 -4.703125 C 3.5625 -3.90625 3.078125 -3.125 2.515625 -2.5 L 0.609375 -0.375 C 0.5 -0.265625 0.5 -0.234375 0.5 0 L 4.203125 0 L 4.46875 -1.734375 L 4.234375 -1.734375 C 4.171875 -1.4375 4.109375 -1 4 -0.84375 C 3.9375 -0.765625 3.28125 -0.765625 3.0625 -0.765625 Z M 1.265625 -0.765625 "
           id="path7" />
      </g>
      <g
         id="glyph-1-2">
        <path
           d="M 2.9375 -6.375 C 2.9375 -6.625 2.9375 -6.640625 2.703125 -6.640625 C 2.078125 -6 1.203125 -6 0.890625 -6 L 0.890625 -5.6875 C 1.09375 -5.6875 1.671875 -5.6875 2.1875 -5.953125 L 2.1875 -0.78125 C 2.1875 -0.421875 2.15625 -0.3125 1.265625 -0.3125 L 0.953125 -0.3125 L 0.953125 0 C 1.296875 -0.03125 2.15625 -0.03125 2.5625 -0.03125 C 2.953125 -0.03125 3.828125 -0.03125 4.171875 0 L 4.171875 -0.3125 L 3.859375 -0.3125 C 2.953125 -0.3125 2.9375 -0.421875 2.9375 -0.78125 Z M 2.9375 -6.375 "
           id="path10" />
      </g>
    </g>
  </defs>
  <path
     fill="none"
     stroke-width="0.19925"
     stroke-linecap="butt"
     stroke-linejoin="miter"
     stroke="rgb(50%, 50%, 50%)"
     stroke-opacity="1"
     stroke-miterlimit="10"
     d="M 0.0015 78.573438 L 0.0015 82.823438 M 48.567906 78.573438 L 48.567906 82.823438 M 145.700719 78.573438 L 145.700719 82.823438 M 194.271031 78.573438 L 194.271031 82.823438 "
     transform="matrix(1, 0, 0, -1, 9.686, 167.925)"
     id="path17" />
  <path
     fill="none"
     stroke-width="0.19925"
     stroke-linecap="butt"
     stroke-linejoin="miter"
     stroke="rgb(50%, 50%, 50%)"
     stroke-opacity="1"
     stroke-miterlimit="10"
     d="M 95.009312 -0.00078125 L 99.259312 -0.00078125 M 95.009312 40.350781 L 99.259312 40.350781 M 95.009312 121.046094 L 99.259312 121.046094 M 95.009312 161.397656 L 99.259312 161.397656 "
     transform="matrix(1, 0, 0, -1, 9.686, 167.925)"
     id="path19" />
  <path
     fill="none"
     stroke-width="0.79701"
     stroke-linecap="butt"
     stroke-linejoin="miter"
     stroke="rgb(0%, 0%, 0%)"
     stroke-opacity="1"
     stroke-miterlimit="10"
     d="M 0.0015 80.698438 L 191.677281 80.698438 "
     transform="matrix(1, 0, 0, -1, 9.686, 167.925)"
     id="path21" />
  <path
     fill-rule="nonzero"
     fill="rgb(0%, 0%, 0%)"
     fill-opacity="1"
     d="M 203.957031 87.226562 L 199.8125 85.15625 L 201.363281 87.226562 L 199.8125 89.300781 "
     id="path23" />
  <path
     fill="none"
     stroke-width="0.79701"
     stroke-linecap="butt"
     stroke-linejoin="miter"
     stroke="rgb(0%, 0%, 0%)"
     stroke-opacity="1"
     stroke-miterlimit="10"
     d="M 97.134312 -0.00078125 L 97.134312 158.807813 "
     transform="matrix(1, 0, 0, -1, 9.686, 167.925)"
     id="path25" />
  <path
     fill-rule="nonzero"
     fill="rgb(0%, 0%, 0%)"
     fill-opacity="1"
     d="M 106.820312 6.527344 L 104.75 10.671875 L 106.820312 9.117188 L 108.894531 10.671875 "
     id="path27" />
  <g
     fill="#000000"
     fill-opacity="1"
     id="g31">
    <use
       xlink:href="#glyph-0-1"
       x="3.3210001"
       y="99.492996"
       id="use29" />
  </g>
  <g
     fill="#000000"
     fill-opacity="1"
     id="g35">
    <use
       xlink:href="#glyph-1-1"
       x="11.069"
       y="99.492996"
       id="use33" />
  </g>
  <g
     fill="#000000"
     fill-opacity="1"
     id="g39">
    <use
       xlink:href="#glyph-0-1"
       x="51.887001"
       y="99.492996"
       id="use37" />
  </g>
  <g
     fill="#000000"
     fill-opacity="1"
     id="g43">
    <use
       xlink:href="#glyph-1-2"
       x="59.636002"
       y="99.492996"
       id="use41" />
  </g>
  <g
     fill="#000000"
     fill-opacity="1"
     id="g47">
    <use
       xlink:href="#glyph-1-2"
       x="152.895"
       y="99.492996"
       id="use45" />
  </g>
  <g
     fill="#000000"
     fill-opacity="1"
     id="g51">
    <use
       xlink:href="#glyph-1-1"
       x="201.46201"
       y="99.492996"
       id="use49" />
  </g>
  <g
     fill="#000000"
     fill-opacity="1"
     id="g55">
    <use
       xlink:href="#glyph-0-1"
       x="88.244003"
       y="170.72"
       id="use53" />
  </g>
  <g
     fill="#000000"
     fill-opacity="1"
     id="g59">
    <use
       xlink:href="#glyph-1-1"
       x="95.992996"
       y="170.72"
       id="use57" />
  </g>
  <g
     fill="#000000"
     fill-opacity="1"
     id="g63">
    <use
       xlink:href="#glyph-0-1"
       x="88.244003"
       y="130.37199"
       id="use61" />
  </g>
  <g
     fill="#000000"
     fill-opacity="1"
     id="g67">
    <use
       xlink:href="#glyph-1-2"
       x="95.992996"
       y="130.37199"
       id="use65" />
  </g>
  <g
     fill="#000000"
     fill-opacity="1"
     id="g71">
    <use
       xlink:href="#glyph-1-2"
       x="95.992996"
       y="50.09"
       id="use69" />
  </g>
  <g
     fill="#000000"
     fill-opacity="1"
     id="g75">
    <use
       xlink:href="#glyph-1-1"
       x="95.992996"
       y="9.7410002"
       id="use73" />
  </g>
  <path
     fill-rule="nonzero"
     fill="rgb(89.99939%, 89.99939%, 100%)"
     fill-opacity="1"
     stroke-width="0.79701"
     stroke-linecap="butt"
     stroke-linejoin="miter"
     stroke="rgb(100%, 0%, 0%)"
     stroke-opacity="1"
     stroke-miterlimit="10"
     d="M 97.134312 40.350781 C 123.958531 40.350781 145.700719 58.413281 145.700719 80.698438 C 145.700719 102.983594 123.958531 121.046094 97.134312 121.046094 "
     transform="matrix(1, 0, 0, -1, 9.686, 167.925)"
     id="path77" />
  <path
     fill-rule="nonzero"
     fill="rgb(94.999695%, 94.999695%, 94.999695%)"
     fill-opacity="1"
     stroke-width="0.79701"
     stroke-linecap="butt"
     stroke-linejoin="miter"
     stroke="rgb(100%, 0%, 0%)"
     stroke-opacity="1"
     stroke-miterlimit="10"
     d="M 107.099156 80.698438 C 107.099156 102.70625 102.638219 120.55 97.134312 120.55 C 91.630406 120.55 87.173375 102.70625 87.173375 80.698438 C 87.173375 58.690625 91.630406 40.846875 97.134312 40.846875 C 102.638219 40.846875 107.099156 58.690625 107.099156 80.698438 Z M 107.099156 80.698438 "
     transform="matrix(1, 0, 0, -1, 9.686, 167.925)"
     id="path79" />
  <path
     fill="none"
     stroke-width="0.79701"
     stroke-linecap="butt"
     stroke-linejoin="miter"
     stroke="rgb(0%, 0%, 0%)"
     stroke-opacity="1"
     stroke-miterlimit="10"
     d="M 48.567906 80.698438 L 106.849156 80.698438 "
     transform="matrix(1, 0, 0, -1, 9.686, 167.925)"
     id="path81" />
  <path
     fill="none"
     stroke-width="0.79701"
     stroke-linecap="butt"
     stroke-linejoin="miter"
     stroke="rgb(0%, 0%, 0%)"
     stroke-opacity="1"
     stroke-miterlimit="10"
     d="M 97.134312 40.350781 L 97.134312 121.046094 "
     transform="matrix(1, 0, 0, -1, 9.686, 167.925)"
     id="path83" />
</svg>
